X: 1779
T: Ar Bhruach Na Laoi
R: waltz
M: 3/4
K: Gmajor
f>g|a<f a3g/f/|g3a/g/ f<d|(e2 e<)d e<f|(d4 d2)|
d>c c4|c<(A A2) d2|d3c/A/ B<c|A4 =f^f/g/|
a2 a2 a/g/f/a/|g3a/g/ f<d|(e2 e<)d e>f|d4 d2|
A2 A2 B<(d|d3)B c<(A|A4) G2|G3A/G/ G2|G4 G2||
AB|c3d e<(f|f2) {gfg}f<e f>g|a3b a2 {bab}a<g|f<d d2 e>f|
(g2 {aga}g2) f<g|e4 d2|^c<(A A4)|G3B (A2|A4) a>g|
f<d e3^c|d3^c A<F|G3A/G/ F>G|A<d d4|
d(=f ^f)g (g2|{aga}g2) e3d|^c2 A<F (G2|G2 {AGA}G4)||

